X: 38950
T: Suzy's
R: slide
M: 12/8
K: Dmajor
FAF d2A FAF d2e|f2A e2A faf d2 A|FAF d2A FAF d2e|f2A e2A d3- d z2:|
~A3 D2A ~A3 d2A|B2e e2d c2A ABA|FAF d2A FAF e2d|c2A ABc d3 d2 z:|
AFA DFA dAd e de|f2A e2A faf d2 A|~F3 AFA BAB d2e|f2A e2A d3 d2 (a:|
b2)(a b2)a faf d2e|f2A d2A FAF D2E|F2A B2A def a2g|f2a e2a d3- d2 (a:|

